X:2
T:
%%maxshrink 0.7
M:C
L:1/8
%%staves {(1 2) 3} P
K:C
V:1 clef=treble
%%scale 0.77
P:Praeludium
x8 |
V:2
Z10|
V:3 clef=bass
G,,//A,,//B,,//C,//D,//E,//F,//E,//
 [V:3 stem=down]D,//E,//C,//E,//G,//C//E//z// 
C,//D,//E,//F,//G,//A,//_B,//A,//
 G,//A,//F,//A,//[I:staff 1]C//F//A//z// |
V:P clef=bass
Z10|
V:1
G,//A,//B,//C//D//E//F//E// D//E//B,//D//F//B//d//z// 
z//D//E//F//G//A//B//c// d//e//f//e//d//e//f///g///a///b/// |
V:3
x8 |
V:1	% mes 3
c'/b//a//g//f//e//d// [V:1 stem=up]c//g//e//B// c//x3// 
x//G//E//B,// C//x3// [I:staff 2]x//G,//E,//B,,// C,//x3// |
x//G,//A,//B,//[I:staff 1]C//D//E//F// G//D//E//B,// C//x3// 
x//C//D//E//F//G//A//_B// c//G//A//E// F//x3// |
V:3
[I:staff 1][V:3 stem=down]x3 x//G//E//G// C//x3// 
[I:staff 2]x//G,//E,//G,// C,//x3// x//G,,//E,,//G,,// |
C,,//x3// x2 x//G,//E,//G,// C,//x3// x2 x//A,//F,//A,// |
V:1	% mes 5
x//f//d//A// B//x3// x//f//d//A// B//x3// 
x//e//c//^F// G//x3// x//e//c//F// G//x3// |
x//_e//c//G// A//x3// x//e//c//G// A//x3// 
x//d//B//G// _A//x3// x//d//B//G// A//x3// |
V:3
C,//x3// [I:staff 1]x//F//D//F// [I:staff 2]G,//x3// x//B,//G,//B,//
C,//x3// x//G,//E,//G,// C,//x3// [I:staff 1]x//E//C//E// |
[I:staff 2]^F,//x3// [I:staff 1]x//_E//C//E// [I:staff 2]F,//x3//
[I:staff 1]x//E//C//E// [I:staff 2]=F,//x3// [I:staff 1]x//D//B,//D//
[I:staff 2]F,//x3// [I:staff 1]x//D//B,//D// |
% (2)	% mes 7
V:1
x//_d//_B//^F// G//x3// x//d//B//F// G//x3//
x//c//A//=E// F//x3// x//c//A//E// F//x3// |
x//B//_A//E// F//x3// x//B//A//E// F//x3//
x//_B//G//=D// E//x3// x//B//G//D// E//x3// |
V:3
[I:staff 2]E,//x3// x//_B,//G,//B,// E,//x3// x//B,//G,//B,//
_E,//x3// x//A,//^F,//A,// E,//x3// x//A,//F,//A,// |
D,//x3// x//_A,//F,//A,// D,//x3// x//A,//F,//A,//
_D,//x3// x//G,//E,//G,// D,//x3// x//G,//E,//G,// |
V:1	% mes 9
x//_B//G//D// E//x3// x//B//G//D// E//x3// x//A//F//=B,//
C//x3// x//A//F//B,// C//x3// |
x//F//D//A,// B,//x3// x//G//B//d//f//B//d//G//
e//d//c//B//c//G//E//C// x2 |
V:3
C,//x3// x//G,//E,//G,// C,//x3// x//G,//E,//G,// C,//x3//
x//A,//F,//A,// C,//x3// x//A,//F,//A,// |
C,//x3// x//G,//B,//D// F//x3// x3 G,//E,//C,//G,,//E,,//G,,//C,,//z// |
V:1 stem=auto	% mes 11
Z11|
V:2
Z11|
V:3 stem=auto
Z11|
V:P
MCC, z2C,/E,/D,/F,/ E,/G,/F,/A,/ |G,/C/C, zC G,/C/B,/C/ G,/C/E,/G,/ |
C,/C/_B,/C/ A,/C/F,/A,/ C,/=B,/A,/B,/ F,/B,/D,/F,/ |
% (3)	% mes 15
G,,/G,/^F,/G,/ =F,/G,/E,/F,/ D,/F,/E,/F,/ D,/E,/C,/D,/ |
B,,/D,/C,/D,/ B,,/C,/A,,/B,,/ G,,/B,,/A,,/C,/ B,,/D,/C,/E,/ |
D,/G,/G,, zG, D,/G,/^F,/G,/ D,/G,/B,,/D,/ |
G,,/G,/F,/G,/ E,/G,/^C,/E,/ A,,/A,/^G,/A,/ E,/A,/C,/E,/ |
A,,/A,/G,/A,/ F,/G,/E,/F,/ D,/F,/E,/F,/ D,/E,/C,/D,/ |
%
B,,/G,/F,/G,/ E,/F,/D,/E,/ C,2 zC |
A,//C//A,//C//A,//C//A,//C// F,//A,//F,//A,//F,//A,//F,//A,//
D,//F,//D,//F,//D,//F,//D,//F,// B,,//D,//B,,//D,//B,,//D,//B,,//D,// |
G,,2-G,,/F,/E,//F,//D,/ E,/C,/G,/E,/ C/G,/A,/E,/ |
V:1	% mes 22
z8 |z/G/A/B/ c/d/e/f/g4- |g6z2|[Ac]4-[Ac]/A,/D/^F/ A/D/F/A/ |
V:2	%clef=auto
z8 |z4 z/d/e/B/c2-|c6z2|E4 D/x3/x2 |
V:3 clef=bass
z8 |z4 z2 [K: clef=treble]z/F/G/D/|E4-E/G,/C/E/ G/C/E/G/ |
[K: clef=bass]z/A,,/C,/E,/ A,/C,/E,/A,/[A,,D,-]4|
V:P
^F,/D,/G,/D,/ =F,/B,,/D,/G,,/ E,/C,/A,/F,/ G,G,, |
C,8 |z/B,/C/F,/ G,/D,/E,/B,,/ C,2B,,2|A,,2G,,2^F,,2E,,2 |
V:1	% mes 26
[Ad-]4 [Bd]/B,/D/^F/ B/D/F/B/ |[Bd]4-[Bd]/B,/E/^G/ B/E/G/B/ |
[Ac]4-[Ac]/f/e/f/ A/c/B/A/ |[G-B]4[Gc]/G/e/c/ f/c/g/c/ |
V:2
^F4- F/x3/ x2 |E4- E/x3/ x2 |
E4DA,FD|D4 Cz z2|
V:3
D,/A,,/D,/^F,/ A,/D,/F,/A,/ [B,,D,F,]4 |z/B,,/E,/^G,/ B,/E,/G,/B,/ [B,,E,G,]4 |
z/A,/^G,/A,/ E,/=G,/F,/E,/ F,4- |F,/F,/E,/F,/ G,,/B,,/D,/F,/ E,G,A,_B,|
V:P
D,,2C,2B,,2A,,2|^G,,2^F,,2E,,2E,2|A,,2C,2D,2D,,2|G,,2G,2C,_B,,A,,G,,|
% (3)
V:1	% mes 30
[fa]4- [fa]/F/_B/F/ e/B/f/B/ |[eg]4-[eg]/E/^c/A/ d/A/e/A/ |
[df]4-[df]/D/B/G/ c/G/d/G/ |e4 z/d/e/^f/ g/a/b/g/ |
V:2
c4_Bzz2 |_B4 Az z2 |A4 Gz z2 |z/G/A/B/ c/d/e/c/ A2zG |
V:3
C/C,/F,/A,/ C/F,/A,/C/ D,F,G,A, |_B,/_B,,/E,/G,/ B,/^C,/E,/G,/ C,E,F,G, |
A,/A,,/D,/F,/ A,/D,/F,/A,/ B,,D,E,F, |G,C [K: clef=treble]EG ^FA D2 |
V:P
F,,2A,,2 _B,,A,,G,,F,, |E,,2G,,2 A,,G,,F,,E,, |
D,,2F,,2 G,,F,,E,,D,, |C,,2C,4B,,2-|
V:1	% mes 34
c'4b4 |a4g4 |f4e4- |e/g/^f/e/ f/g/e/f/ ^d/f/e/f/ B/d/^c/B/ |
V:2
ecf4e2- |e2d4c2- |c2B2[Gc-]4 |[Ac]2cBA2z^F |
V:3
z/C/D/E/ F/G/A/C/ D/B,/C/D/ E/F/G/B,/ |C/A,/B,/C/ D/E/F/A,/
[K: clef=bass]B,/G,/A,/B,/ C/D/E/G,/ |
A,/F,/G,/A,/ B,/C/D/G,/ E/G,/C/E/ [K: clef=treble]G/C/E/G/ |C2AG^F2z^D|
V:P
B,,2A,,4G,,2- |G,,2F,,4E,,2- |E,,2D,,2C,,2B,,2 |A,,2A,2B,B,,B,A, |
V:1	% mes 38
e/B/PB//A//B/ e/B/^f/B/ g/f/e/^d/ e/g/B/=d/ |
^c/e/d/e/ A/c/PB/A/ d/A/PA//G//A/ d/A/e/A/ |
f/e/d/^c/ d/f/A/=c/ B/d/c/d/ G/B/PA/G/ |
c/G/PG//F//G/ c/G/d/G/ e/c/g/e/ c'/e/d/c/ |
V:2
E2E^DE2zG |G2zED2D^C |D2zFF2zD |C2CB,C2z2 |
V:3
B,2 [K: clef=bass]B,[A,B,][G,B,]2zE |E2z^CA,2A,[G,A,] |
[F,A,]2zDD2zB, |G,2G,[F,G,][E,G,]2z2|
V:P
G,G,,G,^F, E,F,G,E, |A,A,,A,G, F,F,,F,E, |
D,E,F,D, G,G,,G,F, |E,E,,E,D, C,2_B,,2 |
% (4)
V:1	% mes 42
f4d/_B/f/d/ _b/d/c/B/ |e4 ^c/A/e/c/ a/c/=B/A/ |
d4B/G/d/B/ g/B/A/G/ |cgc_B Aadc |
V:2
[Ac]4x4 |[G_B]4x4 |[FA]4x4 |C2 G/F/G/E/ F2 A/G/A/^F/ |
V:3
z/F,/A,/C/ F/A,/C/F/-[F,_B,DF]4 |
z/E,/G,/_B,/ E/G,/B,/E/- [E,A,^CE]4 |
z/D,/F,/A,/ D/F,/A,/D/- [D,G,B,D]4 |
[E,G,]2 C4 D2- |
V:P
A,,2F,,2_B,,2A,,2 |G,,2E,,2A,,2G,,2 |
F,,2 D,,2 G,,2 F,,2 |E,,2E,/D,/E,/C,/ F,F,, ^F,/E,/F,/D,/ |
V:1	% mes 46
Bbed cc'f2- |f/a/g/a/ d/f/e/d/ e/g/f/g/ c/e/d/c/ |
d/f/e/f/ B/d/c/B/ c/_e/d/e/ A/c/B/A/ |B/d/c/d/ G/B/A/G/ A/c/B/c/ ^F/A/G/F/ |
V:2
G2B/A/B/^G/ A2c/B/c/A/ |B2zG G2z^F |
G2zD _E2zE |D2zD D2zD |
V:3
D2E4F2 |D2zB, C2z[A,D] |
[B,D]2zG, [^F,A,]2z[F,C] |[G,B,]2zB, [^F,A,]2z[A,C] |
V:P
G,G,, ^G,/^F,/G,/E,/ A,A,, A,/=G,/A,/=F,/ |G,2zG,, G,2zG,, |
G,2zG,, G,2zG,, |G,2zG,, G,2zG,, |
V:1	%mes 50
G/D/G/B/ d/G/B/d/ [e^g]4 |a4- [^fa]4 |
^g/b/a/b/ e/g/^f/e/ a/e/Pe//d//e/ a/e/b/e/ |
c'/b/a/^g/ a/c'/e/=g/ ^f/a/g/a/ d/f/e/d/ |
V:2
D2z2[Bd]4 |[ce]4 [c^d]4 |[Be]2zB A2z^G |A2zA A2zA |
V:3
[G,B,]2z2 z/B,,/E,/^G,/ B,/E,/G,/B,/ |
A,/E,/A,/C/ E/A,/C/E/ A,/^D,/^F,/A,/ C/F,/A,/C/ |
B,2z^G E2zD |E2z^C D2z^F |
V:P
G,2F,2E,4 |E,,8 |E,E,,E,D, C,C,,C,B,, |A,,B,,C,A,, D,D,,D,C, |
% (5)
V:1	% mes 54
g/d/Pd//c//d/ g/d/a/d/ b/a/g/^f/ g/b/d/=f/ |
e/g/f/g/ c/e/d/c/ f/c/Pc//_B//c/ f/c/g/c/ |
a8 |g8 |
V:2
G2G^F G2zG |G2zG F2FE |
F/g/f/e/ f/e/d/^c/ d4- |d/f/e/d/ e/d/^c/B/ c4 |
V:3
D2DC D2zD |C2zE C2C_B, |
A,_B,CA, [K: clef=treble]_B,/=c/_B/A/ B/A/G/F/ |
E4-E/_B/A/G/ A/G/F/E/ |
V:P
B,,B,B,,A,, G,,A,,B,,G,, |C,C,,C_B, A,A,,A,G, |
F,G,A,F, _B,,C,D,B,, |E,F,G,E, A,2A,,2 |
V:1	%mes 58
f8 |_e8 |d4 c4 |c4- c4 |
V:2
z/e/d/^c/ d/=c/B/A/ B4 |z/d/c/B/ c2-c4 &
z2 z/_B/_A/G/[^F=A]4 |
z/c/B/A/B2x4 &
G2-G/A/G/F/[EG]4 |z/_B/A/G/ A2-[_E^FA]4 &
z2z/G/^F/E/x4 |
V:3
D4- D/_A/G/F/ G/F/_E/D/ |[K: clef=bass]C4- C/C,/_E,/^F,/ A,/F,/A,/C/ |
B,2z2z/C,/E,/G,/ C/E,/G,/C/ |^F,4- F,/A,,/C,/_E,/ F,/C,/E,/F,/ |
V:P
D,2D,,2G,,4- |G,,8- |G,,8- |G,,8- |
V:1	% mes 62
B/d/c/d/ G/B/A/G/ c/G/PG//F//G/ c/G/d/G/ |
e/c/g/e/ c'f e2!trill!d2 |
c/G/A/B/ c/d/e/f/ g4- |gzz2 z4 ||
V:2
[DG]2zD C2CB, |C2zF G2F2 |E2z2 z/d/e/B/ c2- |czz2 z4 ||
V:3
G,2zB, G,2G,F, |G,2zC- CC2B, |[G,C]2z2 z2z/^F/G/D/ |Ezz2 z4 ||
V:P
G,,G,,G,F, E,E,,E,D, |C,2zA, G,2G,,2 |
C,2z2z4 |z/B,/C/^F,/ G,/D,/E,/B,,/ C,C,,z2 ||

